X: 1
T: Left Side, The
M: 6/8
L: 1/8
R: jig
K: Gmin
|: DGA BAG | A/B/c A BAG | DGA BAG | EFE D3  |
DGA BAG | A/B/c A Bc^c | dBG cA^F |DG^F G3 :|
|: ^FGA cBA |ded BGD | EcE dEc | BcB  BAG |
^FGA cBA |ded BGD  | EFE DED | DG^F G3 :|
